svgs/duotone/link.svg

<svg xmlns="http://www.w3.org/2000/svg" viewBox="0 0 640 512"><!--! Font Awesome Pro 6.3.0 by @fontawesome - https://fontawesome.com License - https://fontawesome.com/license (Commercial License) Copyright 2023 Fonticons, Inc. --><defs><style>.fa-secondary{opacity:.4}</style></defs><path class="fa-primary" d="M60.21 448.8C3.741 392.3 3.741 300.7 60.21 244.3L172.5 131.1C228.1 75.51 320.5 75.51 376.1 131.1C426.1 181.1 433.5 260.8 392.4 318.3L391.3 319.9C381 334.2 361 337.6 346.7 327.3C332.3 317 328.9 297 339.2 282.7L340.3 281.1C363.2 249 359.6 205.1 331.7 177.2C300.3 145.8 249.2 145.8 217.7 177.2L105.5 289.5C73.99 320.1 73.99 372 105.5 403.5C133.3 431.4 177.3 435 209.3 412.1L210.9 410.1C225.3 400.7 245.3 404 255.5 418.4C265.8 432.8 262.5 452.8 248.1 463.1L246.5 464.2C188.1 505.3 110.2 498.7 60.21 448.8L60.21 448.8z"/><path class="fa-secondary" d="M579.8 63.24C636.3 119.7 636.3 211.3 579.8 267.7L467.5 380C411 436.5 319.5 436.5 263 380C213 330 206.5 251.2 247.6 193.7L248.7 192.1C258.1 177.8 278.1 174.4 293.3 184.7C307.7 194.1 311.1 214.1 300.8 229.3L299.7 230.9C276.8 262.1 280.4 306.9 308.3 334.8C339.7 366.2 390.8 366.2 422.3 334.8L534.5 222.5C566 191 566 139.1 534.5 108.5C506.7 80.63 462.7 76.99 430.7 99.9L429.1 101C414.7 111.3 394.7 107.1 384.5 93.58C374.2 79.2 377.5 59.21 391.9 48.94L393.5 47.82C451 6.731 529.8 13.25 579.8 63.24L579.8 63.24z"/></svg>

<svg xmlns="http://www.w3.org/2000/svg" viewBox="0 0 640 512"><!--! Font Awesome Pro 6.4.0 by @fontawesome - https://fontawesome.com License - https://fontawesome.com/license (Commercial License) Copyright 2023 Fonticons, Inc. --><defs><style>.fa-secondary{opacity:.4}</style></defs><path class="fa-primary" d="M60.2 448.8c-56.5-56.5-56.5-148 0-204.5L172.5 132c56.5-56.5 148-56.5 204.5 0c50 50 56.5 128.8 15.4 186.3l-1.1 1.6c-10.3 14.4-30.3 17.7-44.6 7.4s-17.7-30.3-7.4-44.6l1.1-1.6c22.9-32.1 19.3-76-8.6-103.9c-31.5-31.5-82.5-31.5-114 0L105.5 289.5C74 321 74 372 105.5 403.5c27.9 27.9 71.8 31.5 103.8 8.6l1.6-1.1c14.4-10.3 34.4-6.9 44.6 7.4s6.9 34.4-7.4 44.6l-1.6 1.1C189 505.3 110.2 498.7 60.2 448.8z"/><path class="fa-secondary" d="M579.8 63.2c56.5 56.5 56.5 148 0 204.5L467.5 380c-56.5 56.5-148 56.5-204.5 0c-50-50-56.5-128.8-15.4-186.3l1.1-1.6c10.3-14.4 30.3-17.7 44.6-7.4s17.7 30.3 7.4 44.6l-1.1 1.6c-22.9 32.1-19.3 76 8.6 103.8c31.5 31.5 82.5 31.5 114 0L534.5 222.5c31.5-31.5 31.5-82.5 0-114C506.7 80.6 462.7 77 430.7 99.9l-1.6 1.1c-14.4 10.3-34.4 6.9-44.6-7.4s-6.9-34.4 7.4-44.6l1.6-1.1C451 6.7 529.8 13.3 579.8 63.2z"/></svg>
